Newaita-dark/emblems/48/emblem-unlocked.svg

<svg height="48" viewBox="0 0 48 48" width="48" xmlns="http://www.w3.org/2000/svg"><path d="m23.816406 1.988281c-8.488281 0-15.753906 6.460938-15.753906 14.757813v2.925781c-2.28125.792969-3.96875 2.996094-3.96875 5.511719v15.378906c0 3.164062 2.667969 5.828125 5.828125 5.828125h27.785156c3.164063 0 5.828125-2.664063 5.828125-5.828125v-15.378906c0-2.515625-1.6875-4.71875-3.96875-5.511719v-2.925781c0-8.296875-7.265625-14.757813-15.75-14.757813zm0 0" fill="#424242"/><path d="m23.816406 5.832031c-5.757812 0-10.535156 3.707031-11.660156 8.671875l3.945312.589844c.84375-3.042969 3.96875-5.292969 7.714844-5.292969 4.394532 0 7.9375 3.097657 7.9375 6.945313v6.453125h-21.832031c-1.097656 0-1.984375.882812-1.984375 1.984375v15.378906c0 1.097656.886719 1.984375 1.984375 1.984375h27.785156c1.097657 0 1.984375-.886719 1.984375-1.984375v-15.378906c0-1.101563-.886718-1.984375-1.984375-1.984375h-1.984375v-6.453125c0-6.046875-5.3125-10.914063-11.90625-10.914063zm0 0" fill="#fafafa"/></svg>

<?xml version="1.0" encoding="UTF-8"?>
<svg xmlns="http://www.w3.org/2000/svg" xmlns:xlink="http://www.w3.org/1999/xlink" width="48px" height="48px" viewBox="0 0 48 48" version="1.1">
<g id="surface1">
<path style=" stroke:none;fill-rule:nonzero;fill:rgb(25.882354%,25.882354%,25.882354%);fill-opacity:1;" d="M 23.816406 1.988281 C 15.328125 1.988281 8.0625 8.449219 8.0625 16.746094 L 8.0625 19.671875 C 5.78125 20.464844 4.09375 22.667969 4.09375 25.183594 L 4.09375 40.5625 C 4.09375 43.726562 6.761719 46.390625 9.921875 46.390625 L 37.707031 46.390625 C 40.871094 46.390625 43.535156 43.726562 43.535156 40.5625 L 43.535156 25.183594 C 43.535156 22.667969 41.847656 20.464844 39.566406 19.671875 L 39.566406 16.746094 C 39.566406 8.449219 32.300781 1.988281 23.816406 1.988281 Z M 23.816406 1.988281 "/>
<path style=" stroke:none;fill-rule:nonzero;fill:rgb(98.039216%,98.039216%,98.039216%);fill-opacity:1;" d="M 23.816406 5.832031 C 18.058594 5.832031 13.28125 9.539062 12.15625 14.503906 L 16.101562 15.09375 C 16.945312 12.050781 20.070312 9.800781 23.816406 9.800781 C 28.210938 9.800781 31.753906 12.898438 31.753906 16.746094 L 31.753906 23.199219 L 9.921875 23.199219 C 8.824219 23.199219 7.9375 24.082031 7.9375 25.183594 L 7.9375 40.5625 C 7.9375 41.660156 8.824219 42.546875 9.921875 42.546875 L 37.707031 42.546875 C 38.804688 42.546875 39.691406 41.660156 39.691406 40.5625 L 39.691406 25.183594 C 39.691406 24.082031 38.804688 23.199219 37.707031 23.199219 L 35.722656 23.199219 L 35.722656 16.746094 C 35.722656 10.699219 30.410156 5.832031 23.816406 5.832031 Z M 23.816406 5.832031 "/>
</g>
</svg>
